assets/img/pricing_table/triple_room.svg

<?xml version="1.0" encoding="UTF-8"?>
<svg width="50px" height="50px" viewBox="0 0 50 50" version="1.1" xmlns="http://www.w3.org/2000/svg" xmlns:xlink="http://www.w3.org/1999/xlink">
    <!-- Generator: Sketch 48.2 (47327) - http://www.bohemiancoding.com/sketch -->
    <title>Double Room</title>
    <desc>Created with Sketch.</desc>
    <defs></defs>
    <g id="Desktop---Version-2-Copy" stroke="none" stroke-width="1" fill="none" fill-rule="evenodd" transform="translate(-955.000000, -4700.000000)">
        <g id="Pricing-section" transform="translate(0.000000, 4371.000000)">
            <g id="Cards" transform="translate(137.000000, 184.000000)">
                <g id="Early-Bird-Copy-2" transform="translate(800.000000, 0.000000)">
                    <g id="Text" transform="translate(19.000000, 144.000000)">
                        <g id="Rooms">
                            <g id="Double-Room" transform="translate(0.000000, 2.000000)">
                                <path d="M11.1272732,26.3038171 L11.1272732,37.6181834 L11.3847768,37.6181834 L11.646595,35.6010444 L35.4796323,35.6010444 L35.7414505,37.6181834 L36.0000014,37.6181834 L36.0000014,26.3038171 L11.1272732,26.3038171 Z M33.1273322,24.9071063 L34.335885,24.9071063 L34.335885,20.5522852 C26.7772822,18.0065353 20.144423,17.9881294 12.790866,20.5539309 L12.790866,24.9071063 L13.9988951,24.9071063 L13.9988951,21.8079133 L14.4309504,21.6517526 C17.6594598,20.4848498 19.9625576,20.4905312 23.270458,21.6425449 L23.5774641,21.7494632 L23.8481896,21.6516938 C27.0788291,20.4849854 29.380975,20.4904231 32.6881239,21.6425677 L33.1273322,21.7955791 L33.1273322,24.9071063 Z M23.7097319,24.9071063 L23.7097319,25.2678917 L23.5628518,25.4147717 L23.4159718,25.2678917 L23.4159718,24.9071063 L23.7097319,24.9071063 Z" id="Shape" stroke="#AE8A61" stroke-width="1.30909096" fill-rule="nonzero"></path>
                                <path d="M23.5636373,0 C10.5564456,0 0,10.5565095 0,23.5636373 C0,36.5708773 10.5564456,47.1272746 23.5636373,47.1272746 C36.570829,47.1272746 47.1272746,36.5708773 47.1272746,23.5636373 C47.1272746,10.5565095 36.570829,0 23.5636373,0 Z" id="Path" stroke="#AE8A61" stroke-width="1.83272735" stroke-linecap="square"></path>
                                <path d="M19.952387,13.9784092 L21.148978,12.2847727 C21.4067066,12.5956834 21.7411351,12.8298856 22.1522736,12.9873864 C22.563412,13.1448872 22.9407946,13.2236364 23.2844327,13.2236364 C23.5789797,13.2236364 23.834659,13.1489781 24.0514782,12.9996591 C24.2682975,12.8503402 24.3767055,12.6539785 24.3767055,12.4105682 C24.3767055,12.1671578 24.2887519,11.9800006 24.1128419,11.8490908 C23.9369319,11.7181811 23.701707,11.6527272 23.40716,11.6527272 L22.5296599,11.6527272 L22.5296599,9.76886341 L23.40716,9.76886341 C23.9103444,9.76886341 24.1619328,9.5592064 24.1619328,9.13988609 C24.1619328,8.72056578 23.8694357,8.51090876 23.2844327,8.51090876 C22.5644291,8.51090876 21.8730723,8.74204284 21.2103417,9.20431791 L20.2653416,7.38181777 C21.1612552,6.75181457 22.2391991,6.43681769 23.4992055,6.43681769 C24.4114828,6.43681769 25.1938614,6.65465644 25.8463648,7.09034047 C26.4988681,7.5260245 26.8251148,8.10590511 26.8251148,8.8299997 C26.8251148,9.68500404 26.4610275,10.2904526 25.732842,10.6463635 C26.141935,10.7731823 26.4753408,11.0124981 26.7330694,11.3643181 C26.990798,11.7161381 27.1196603,12.1272703 27.1196603,12.5977273 C27.1196603,13.199094 26.9386394,13.7155661 26.5765921,14.1471592 C26.2145448,14.5787523 25.765572,14.8917038 25.2296602,15.0860229 C24.6937483,15.2803421 24.1087542,15.3775002 23.47466,15.3775002 C22.6278375,15.3775002 21.8986402,15.2404561 21.2870462,14.9663638 C20.6754522,14.6922715 20.2305702,14.3629566 19.952387,13.9784092 Z" id="3" fill="#AE8A61"></path>
                            </g>
                        </g>
                    </g>
                </g>
            </g>
        </g>
    </g>
</svg>

<svg width="50" height="50" viewBox="0 0 50 50" xmlns="http://www.w3.org/2000/svg"><title>Double Room</title><g transform="translate(1 1)" fill="none" fill-rule="evenodd"><path d="M11.127 26.304v11.314h.258l.262-2.017H35.48l.261 2.017H36V26.304H11.127zm22-1.397h1.209v-4.355c-7.559-2.545-14.192-2.564-21.545.002v4.353h1.208v-3.1l.432-.155c3.228-1.167 5.532-1.161 8.84-.01l.306.107.271-.097c3.23-1.167 5.533-1.162 8.84-.01l.44.154v3.111zm-9.417 0v.36l-.147.148-.147-.147v-.36h.294z" stroke="#AE8A61" stroke-width="1.309"/><path d="M23.564 0C10.556 0 0 10.557 0 23.564s10.556 23.563 23.564 23.563c13.007 0 23.563-10.556 23.563-23.563S36.571 0 23.564 0z" stroke="#AE8A61" stroke-width="1.833" stroke-linecap="square"/><path d="M19.952 13.978l1.197-1.693c.258.31.592.545 1.003.702.411.158.789.237 1.132.237.295 0 .55-.075.767-.224.217-.15.326-.346.326-.59 0-.243-.088-.43-.264-.56-.176-.132-.411-.197-.706-.197h-.877V9.769h.877c.503 0 .755-.21.755-.63 0-.418-.293-.628-.878-.628-.72 0-1.41.231-2.074.693l-.945-1.822c.896-.63 1.974-.945 3.234-.945.912 0 1.695.218 2.347.653.653.436.98 1.016.98 1.74 0 .855-.365 1.46-1.093 1.816.409.127.742.366 1 .718s.387.763.387 1.234c0 .601-.181 1.118-.543 1.55a3.11 3.11 0 0 1-1.347.938 5.113 5.113 0 0 1-1.755.292c-.847 0-1.576-.138-2.188-.412-.612-.274-1.056-.603-1.335-.988z" fill="#AE8A61"/></g></svg>
